X: 4214
T: Bluebells Of Scotland, The
R: polka
M: 2/4
K: Amixolydian
|:A|a2 gf|e2 fg/a/|cc dB|A3:|
e/>d/|cA ce|a2 fg/a/|ge fd|e2 fg|
a2 gf|e2 fg/a/|cc dB|A2 A2||

